X:1
T:Le Cygne
T:Le Cygne
T:(The Swan)
T:C. Saint-Saëns
C:C. Saint-Saëns
%%score 1 { 2 | 3 } { ( 4 6 ) | ( 5 7 ) }
L:1/8
Q:1/4=60
M:6/4
K:G
V:1 tenor nm="Violoncello" snm="Vlc."
V:2 treble nm="Piano" snm="Pno."
V:3 bass 
V:4 treble nm="Piano" snm="Pno."
V:6 treble 
V:5 bass 
V:7 bass 
V:1
"^Andantino grazioso" z12 |!p! (G2 F2 B,2) (E2 D2 G,2) | A,4- A,B, C4 z2 | E,4 F,G, A,B,CDEF | %4
 B6- B z z2 z2 | (G2 F2 B,2) (E2 D2 G,2) | ^A,4- A,B, ^C6 | F,3 ^G,^A,B, ^CDEF^G^A | d6- d z z4 | %9
 (d2 B2 G2) (E2 F2 G2) | D4- DE F4 z2 | (c2 A2 =F2) (D2 E2 F2) | C4- CD E4 z2 | %13
!<(! (E2 A,2 B,2) C4 DE!<)! |!>(! (F6 E4)!>)! z2 |!<(! (E2 A,2 B,2) ^C4 DE!<)! | %16
!>(! (=F6 ^F6)!>)! |!p! (G2 F2 B,2) (E2 D2 G,2) | A,4- A,B, C4 z2 | E,4 F,G, A,B,CDEF | %20
!<(! B12!<)! |!mf! (B2 A2 E2) (G2 F2 C2) |!<(! (E2 D2 G,2) (A,2 B,2 G,2)!<)! | %23
 !^!B,6"_dim." (C2 D2 B,2) |[Q:1/4=55]"^Rit." E6[Q:1/4=45]"^Lento" (E2 F2 D2)[Q:1/4=52]"^52" | %25
[Q:1/4=60]"^a Tempo"!pp! G12- | G6-[Q:1/4=55]"^Rit." G z z4[Q:1/8=80] |[Q:1/8=60] z12 |] %28
V:2
!pp! (B,/D/B/G/ B,/D/B/G/ B,/D/B/G/ B,/D/B/G/ B,/D/B/G/ B,/D/B/G/) | %1
 (B,/D/B/G/ B,/D/B/G/ B,/D/B/G/ B,/D/B/G/ B,/D/B/G/ B,/D/B/G/) | %2
 C/E/c/A/ C/E/c/A/ C/E/c/A/ C/E/c/A/ C/E/c/A/ C/E/c/A/ | %3
 C/E/c/A/ C/E/c/A/ C/E/c/A/ C/E/c/A/ C/E/c/A/ C/E/c/A/ | %4
 B,/D/B/G/ B,/D/B/G/ B,/D/B/G/ B,/D/B/G/ B,/D/B/G/ B,/D/B/G/ | %5
 B,/D/B/G/ B,/D/B/G/ B,/D/B/G/ B,/D/B/G/ B,/D/B/G/ B,/D/B/G/ | %6
 ^C/E/^c/^A/ C/E/c/A/ C/E/c/A/ C/E/c/A/ C/E/c/A/ C/E/c/A/ | %7
 B,/D/B/F/ B,/D/B/F/ B,/D/B/F/ ^A,/E/^A/F/ A,/E/A/F/ A,/E/A/F/ | %8
 D/F/B/F/ D/F/B/F/ D/F/B/F/ D/F/B/F/ D/F/B/F/ D/F/B/F/ | %9
 D/G/d/B/ D/G/d/B/ D/G/d/B/ ^C/E/^c/G/ C/E/c/G/ C/E/c/G/ | %10
 C/E/c/G/ C/E/c/G/ C/E/c/G/ C/E/c/G/ C/E/c/G/ C/E/c/G/ | %11
 C/=F/c/A/ C/F/c/A/ C/F/c/A/ B,/D/B/F/ B,/D/B/F/ B,/D/B/F/ | %12
 _B,/C/_B/=F/ B,/C/B/F/ B,/C/B/F/ B,/C/B/F/ B,/C/B/F/ B,/C/B/F/ | %13
 A,/E/A/E/ A,/E/A/E/ A,/E/A/E/ A,/E/A/E/ A,/E/A/E/ A,/E/A/E/ | %14
!>(! A,/E/A/E/ A,/E/A/E/ A,/E/A/E/!>)! A,/E/A/E/ A,/E/A/E/ A,/E/A/E/ | %15
!<(! A,/E/A/D/ A,/E/A/D/ A,/E/A/D/ A,/^C/A/E/ A,/C/A/E/ A,/C/A/E/!<)! | %16
!>(! A,/D/A/=F/ B,/D/A/F/ C/D/A/F/ C/D/A/^F/ C/D/A/F/ C/D/A/F/!>)! | %17
 (B,/D/B/G/ B,/D/B/G/ B,/D/B/G/ B,/D/B/G/ B,/D/B/G/ B,/D/B/G/) | %18
 C/E/c/A/ C/E/c/A/ C/E/c/A/ C/E/c/A/ C/E/c/A/ C/E/c/A/ | %19
 C/E/c/A/ C/E/c/A/ C/E/c/A/ C/E/c/A/ C/E/c/A/ C/E/c/A/ | %20
!<(! B,/D/B/=F/ B,/D/B/F/ B,/D/B/A/ D/G/d/B/ D/G/d/B/ D/G/d/B/!<)! | %21
 C/E/c/A/ C/E/c/A/ C/E/c/A/ C/E/c/A/ C/E/c/A/ C/E/c/A/ | %22
!>(! B,/D/B/G/ B,/D/B/G/ B,/D/B/G/!>)! [A,CG]6 | B,/D/B/G/D/G/d/B/G/B/g/d/ z6 | %24
!pp! B,/E/B/G/E/G/e/B/G/B/g/e/ [DAc] z z2 z2 | %25
 z2 z2!pp!!8va(! e'/g'/e''/b'/ d'/g'/d''/b'/ b/e'/b'/g'/!8va)! e/g/e'/b/ | %26
 d/g/d'/b/ B/e/b/g/ B/d/b/g/ E/G/e/B/ D/G/d/B/ B,/D/B/G/ | B, z z2 z8 |] %28
V:3
 (G,,D,G,D,G,,D, G,,D,G,D,G,,D,) | (G,,D,G,D,G,,D, G,,D,G,D,G,,D,) | %2
 G,,E,A,E,G,,E, G,,E,A,E,G,,E, | G,,E,A,E,G,,E, G,,E,A,E,G,,E, | G,,D,G,D,G,,D, G,,D,G,D,G,,D, | %5
 G,,D,G,D,G,,D, G,,D,G,D,G,,D, | G,,E,^A,E,G,,E, G,,E,A,E,G,,E, | F,,D,F,D,F,,D, F,,^C,F,C,F,,C, | %8
 B,,F,B,F,B,,F, B,,F,B,F,B,,F, | B,,D,B,D,B,,D, _B,,D,_B,D,B,,D, | A,,D,A,D,A,,D, D,,D,A,D,A,,D, | %11
 A,,C,A,C,A,,C, _A,,C,_A,C,A,,C, | G,,C,G,C,G,,C, C,,C,G,C,C,,C, | %13
 =F,,A,,=F,A,,F,,A,, E,,A,,E,A,,E,,A,, | D,,A,,D,A,,D,,A,, E,,A,,E,A,,E,,A,, | %15
 =F,,A,,=F,A,,F,,A,, E,,A,,E,A,,E,,A,, | D,,A,,D,A,,D,,A,, C,C,,B,,B,,,A,,A,,, | %17
 (G,,D,G,D,G,,D, G,,D,G,D,G,,D,) | G,,E,A,E,G,,E, G,,E,A,E,G,,E, | G,,E,A,E,G,,E, G,,E,A,E,G,,E, | %20
 G,,D,G,D,=F,,B,, E,,B,,^G,B,,E,,B,, | A,,E,A,E,A,,E, A,,F,A,F,A,,E, | B,,D,G,D,B,,D, [E,,E,]6 | %23
{/D,,} D,G,B,G,DB, z6 | [D,,D,]2 z2 z8 | z2 z2[K:treble] be bd eB BE | %26
 BD[K:bass] EB, DB, B,E, B,D, G,B,, | G,, z z2 z8 |] %28
V:4
!pp! [B,D]2 z2 z2 !arpeggio![Bdgb]2 z2 z2 | [B,D]2 z2 z2 !arpeggio![Bdgb]2 z2 z2 | %2
 [A,CE]2 z2 z2 !arpeggio![ceac']2 z2 z2 | !arpeggio![CEAc]2 z2 z2 !arpeggio![CFc]2 z2 z2 | %4
 !arpeggio![B,GB]2 z2 z2 !arpeggio![Bdgbd']2 z2 z2 | [B,D]2 z2 z2 !arpeggio![Bdgbd']2 z2 z2 | %6
 !arpeggio![^A,^CE^A]2 z2 z2 !arpeggio![A^ce^a]2 z4 | %7
 !arpeggio![DFBd]2 z2 z2 !arpeggio![^A,EF^A]2 z2 z2 | [B,DFB]2 z2 z2 !arpeggio![bd'f'b']2 z2 z2 | %9
 z2!8va(! [d'd'']2 [d'd'']2 [d'd'']2 [d'd'']2 [d'd'']2 | %10
 z2 [d'd'']2 [d'd'']2 [d'd'']2 [d'd'']2 [d'd'']2 | %11
 z2 [c'c'']2 [c'c'']2 [c'c'']2 [c'c'']2 [c'c'']2 | %12
 z2 [c'c'']2 [c'c'']2 z2 [c'c'']2 [c'c'']2!8va)! | z12 | ([df]6 [ce]4) z2 | z12 | %16
!>(! ([=F=f]6 [^F^f]6)!>)! | [B,D]2 z2 z2 !arpeggio![Bdgb]2 z2 z2 | %18
 [A,CE]2 z2 z2 !arpeggio![ceac']2 z2 z2 | !arpeggio![CEAc]2 z2 z2 !arpeggio![CFc]2 z2 z2 | %20
!<(! z4 z2 (.[D^G]2 .[DGd]2) z2!<)! |!p! CEcECE CFcFCF |!>(! [B,DGB]6 [A,CG]6!>)! |!pp! D6 z6 | %24
 z12 | z12 | !arpeggio![Bgb]2 z2 z8 | !arpeggio![GBdg] z z2 z8 |] %28
V:5
 [G,,D,]2 z2 z2[I:staff -1] [B,DG]2[I:staff +1] z2 z2 | %1
 [G,,D,]2 z2 z2[I:staff -1] [B,DG]2[I:staff +1] z2 z2 | %2
 [G,,E,]2 z2 z2[I:staff -1] [G,EA]2[I:staff +1] z2 z2 | [G,,E,A,]2 z2 z2 [G,,D,A,]2 z2 z2 | %4
 [G,,D,G,]2 z2 z2[I:staff -1] [B,DG]2[I:staff +1] z2 z2 | %5
 [G,,D,]2 z2 z2[I:staff -1] [B,DG]2[I:staff +1] z2 z2 | (G,,6 F,,6) | %7
 [F,,D,F,B,]2 z2 z2 [F,,^C,F,]2 z2 z2 | [B,,,B,,]2 z2 z2[I:staff -1] [FBdf]2[I:staff +1] z2 z2 | %9
 z12 | z12 | z12 | z12 | z12 | ([DF]6 [CE]4) z2 | z12 | D12 | %17
 [G,,D,]2 z2 z2[I:staff -1] [B,DG]2[I:staff +1] z2 z2 | %18
 [G,,E,]2 z2 z2[I:staff -1] [G,EA]2[I:staff +1] z2 z2 | [G,,E,A,]2 z2 z2 [G,,D,A,]2 z2 z2 | %20
 (G,,4 =F,,2) !arpeggio![E,,B,,^G,]6 | (A,,2 E,2 A,2) (A,,2 F,2 A,2) | [B,,,B,,]6 [E,,E,]6 | %23
 [D,,D,]6 z6 | z12 | z12 |[I:staff -1] [B,G]2[I:staff +1] z2 z8 | [G,,D,B,] z z2 z8 |] %28
V:6
 x12 | x12 | x12 | x12 | x12 | x12 | x12 | x12 | x12 | x2!8va(! x10 | x12 | x12 | x12!8va)! | x12 | %14
 A6- A4 x2 | x12 | d12 | x12 | x12 | x12 | x12 | x12 | x12 | x12 | x12 | x12 | x12 | x12 |] %28
V:7
 x12 | x12 | x12 | x12 | x12 | x12 | x12 | x12 | x12 | x12 | x12 | x12 | x12 | x12 | A,6- A,4 x2 | %15
 x12 | (A,8 B,2 C2) | x12 | x12 | x12 | x12 | x12 | x12 | x12 | x12 | x12 | x12 | x12 |] %28

